src/components/ProtocolIcon/filecoin.svg

<svg width="16" height="16" viewBox="0 0 16 16" fill="none" xmlns="http://www.w3.org/2000/svg">
<path fill-rule="evenodd" clip-rule="evenodd" d="M8 15.9998C3.6 15.9998 0 12.3998 0 7.95984C0.04 3.55984 3.6 -0.0401581 8.04 -0.000158138C12.44 0.0398418 16 3.59984 16 8.07984C15.96 12.4398 12.4 15.9998 8 15.9998ZM8.75991 7.03996L8.51991 8.31995L10.7999 8.63995L10.6399 9.23995L8.39991 8.91995C8.23991 9.43995 8.15991 9.99995 7.95991 10.48C7.75991 11.04 7.55991 11.6 7.31991 12.12C6.99991 12.8 6.43991 13.28 5.67991 13.4C5.23991 13.48 4.75991 13.44 4.39991 13.16C4.27991 13.08 4.15991 12.92 4.15991 12.8C4.15991 12.64 4.23991 12.44 4.35991 12.36C4.43991 12.32 4.63991 12.36 4.75991 12.4C4.87991 12.52 4.99991 12.68 5.07991 12.84C5.31991 13.16 5.63991 13.2 5.95991 12.96C6.31991 12.64 6.51991 12.2 6.63991 11.76C6.87991 10.8 7.11991 9.87995 7.31991 8.91995V8.75995L5.19991 8.43995L5.27991 7.83995L7.47991 8.15995L7.75991 6.91995L5.47991 6.55996L5.55991 5.91996L7.91991 6.23996C7.99991 5.99996 8.03991 5.79996 8.11991 5.59996C8.31991 4.87996 8.51991 4.15996 8.99991 3.51996C9.47991 2.87996 10.0399 2.47996 10.8799 2.51996C11.2399 2.51996 11.5999 2.63996 11.8399 2.91996C11.8799 2.95996 11.9599 3.03996 11.9599 3.11996C11.9599 3.27996 11.9599 3.47996 11.8399 3.59996C11.6799 3.71996 11.4799 3.67996 11.3199 3.51996C11.1999 3.39996 11.1199 3.27996 10.9999 3.15996C10.7599 2.83996 10.3999 2.79996 10.1199 3.07996C9.91991 3.27996 9.71991 3.55996 9.59991 3.83996C9.31991 4.67996 9.11991 5.55996 8.83991 6.43996L11.0399 6.75996L10.8799 7.35995L8.75991 7.03996Z" fill="#0090FF"/>
</svg>

<svg xmlns="http://www.w3.org/2000/svg" width="16" height="16" fill="none"><path fill="#0090FF" fill-rule="evenodd" d="M8 16c-4.4 0-8-3.6-8-8.04.04-4.4 3.6-8 8.04-7.96C12.44.04 16 3.6 16 8.08 15.96 12.44 12.4 16 8 16m.76-8.96-.24 1.28 2.28.32-.16.6-2.24-.32c-.16.52-.24 1.08-.44 1.56-.2.56-.4 1.12-.64 1.64-.32.68-.88 1.16-1.64 1.28-.44.08-.92.04-1.28-.24-.12-.08-.24-.24-.24-.36 0-.16.08-.36.2-.44.08-.04.28 0 .4.04.12.12.24.28.32.44.24.32.56.36.88.12.36-.32.56-.76.68-1.2.24-.96.48-1.88.68-2.84v-.16L5.2 8.44l.08-.6 2.2.32.28-1.24-2.28-.36.08-.64 2.36.32c.08-.24.12-.44.2-.64.2-.72.4-1.44.88-2.08s1.04-1.04 1.88-1c.36 0 .72.12.96.4.04.04.12.12.12.2 0 .16 0 .36-.12.48-.16.12-.36.08-.52-.08-.12-.12-.2-.24-.32-.36-.24-.32-.6-.36-.88-.08-.2.2-.4.48-.52.76-.28.84-.48 1.72-.76 2.6l2.2.32-.16.6z" clip-rule="evenodd"/></svg>
